svgs/sharp-solid/link-simple.svg

<svg xmlns="http://www.w3.org/2000/svg" viewBox="0 0 576 512"><!--! Font Awesome Pro 6.6.0 by @fontawesome - https://fontawesome.com License - https://fontawesome.com/license (Commercial License) Copyright 2024 Fonticons, Inc. --><path d="M0 256C0 167.6 71.6 96 160 96l64 0 32 0 0 64-32 0-64 0c-53 0-96 43-96 96s43 96 96 96l64 0 32 0 0 64-32 0-64 0C71.6 416 0 344.4 0 256zm576 0c0 88.4-71.6 160-160 160l-64 0-32 0 0-64 32 0 64 0c53 0 96-43 96-96s-43-96-96-96l-64 0-32 0 0-64 32 0 64 0c88.4 0 160 71.6 160 160zM192 224l192 0 32 0 0 64-32 0-192 0-32 0 0-64 32 0z"/></svg>

<svg xmlns="http://www.w3.org/2000/svg" viewBox="0 0 576 512"><!--! Font Awesome Pro 6.4.2 by @fontawesome - https://fontawesome.com License - https://fontawesome.com/license (Commercial License) Copyright 2023 Fonticons, Inc. --><path d="M0 256C0 167.6 71.6 96 160 96h64 32v64H224 160c-53 0-96 43-96 96s43 96 96 96h64 32v64H224 160C71.6 416 0 344.4 0 256zm576 0c0 88.4-71.6 160-160 160H352 320V352h32 64c53 0 96-43 96-96s-43-96-96-96H352 320V96h32 64c88.4 0 160 71.6 160 160zM192 224H384h32v64H384 192 160V224h32z"/></svg>
